-----BEGIN PGP PUBLIC KEY BLOCK-----
Comment: Hostname: pgp.surf.nl
Version: Hockeypuck 2.3.3

xsFNBFfNZD4BEACo0YKCUEhTY7v8VZVw3csAtnsRSFQ18G8xfYIt7mJEBrtfiGG4
g28EjNeWQfN8wGIaAeRGl5nb7s9RRpxXStUu719jGX1Z9Sr8p/JOmBS5kdfAtYId
9Cl3VsGRvf4Smg1ClrEv6tQ97j+d1FY8QfgW/GS46YBOEeOFVQRtfi7Yv9lZkiBF
rzP0Nr7JV9u1GkBsFgNkVuYs/3RDYULItBwGFerduOyQCOt819QvHHSZkXqJWwNR
OA6lc8gW36lKbDHoZ1jSkDnDV0bW0cX1/6WJSzWYdcPiceA1vj/VDg0Kr23SVQ1P
yPvBirT7ToirQm6KrIiKHWLSg156ht8/K2C1Dgypf+YMseMbHQxVLrI2p4zpmxu3
B2SrSj3ImM5FO0XGd1gxn/qywNVJDQBfcYnndksD2i/9/Es8I/F6OymBZl4HWBvx
7ixm2JPXkmwVPEC/lJn3eCBb1fAaJSlroHtaAEteCWuE5/Mg/uYEh1UeAstP47N3
P0B3l1E4Ccw1ne2/O1BdsnXeUaI3YVYz9aZkVlL7ywda3h/goRKxc1b18bmgu/Ed
QmcTEMj29B3szMpetWNt1ZbaMJzfDw+z+SiQ3toOTUiqMuWq+l+JK0dVUzOvpGhG
VHv5m9CtJFP671ivEc4it0hJRH5kdW9aNbeG0g9TxHQqQMJIpeLvRq5WKwARAQAB
zSFBbGJlcnQgQXN0YWxzIENpZCA8YWFjaWRAa2RlLm9yZz7CwZQEEwEIAD4CGwMF
CwkIBwIGFQgJCgsCBBYCAwECHgECF4AWIQTKJixsg95NL7KKMyo6ak24Oeqm1wUC
aeaYuwUJFLL5/QAKCRA6ak24Oeqm14ZgD/9rFTlhsL2ynepmOfRzdmUTBbxYQeFU
7YS1RlJX1nr5AlGFj55GUZekIGm5XB85ZHBDPkfHjUXneSkV9vNwQyWkm2PsZ5yq
0bNO0cHykwwqmYvQ9A/nn7WHT1/Zxs3JYaiGLyqX7q/+LjL8mbDjfn/r4Ey9+/3P
WEdLyFEyYVwzLuY+kssAcThdJ6kg3MgqgfRTcjoIfgMdtoBRB2lnvqmf99Hd0vhY
MPUaKfvRxxfL/5wEOSKz86TGZC/z0+GuZZGouRehLETBfvIolcmp/ND4JB0nHFqq
3djSqc3M2DOF9uEmpNq5j6FA4uu5cLSN74in7V/OkEb0PyS4aQI0Gh4/uRN+Ww0o
qWLParavtK//XuFueI06jiWf4mmpKqsq3Hh77bbuGg0E/Rc68cXqU7HPxjzmrafi
rsqAmGZrEc4uKj87MiHqe9HJEPNwfqPqfrCMhl4KWmK0/3J1fcQWU+k3nRB2unhl
d+hnyhFKU8zT9LN98Vvjdb46Tgy0NDPEzc35Yb84sdS33r8SlmzvID6IfOftD60p
LIxems64nLrXgXxkGhzsQT71RtdlubTITA0CBQq7aexLdYOJewiyCZz9rycq7l1U
U2zBMGZb21/BR+zqzpiGCgy9+YAU43YgxiXPWCTZH+aYpF6qIAA6/QGHck9nvd+/
v5RJaETw3Hb3ksLBlAQTAQgAPgIbAwULCQgHAgYVCAkKCwIEFgIDAQIeAQIXgBYh
BMomLGyD3k0vsoozKjpqTbg56qbXBQJi/nb/BQkNE9cgAAoJEDpqTbg56qbXOSwP
/3kd2wtsIyVBYiZ+3EBjTBQ1UtO+3v72uOm3+6fIKp20P25LsnpN+V2Z3bM/EgkX
GkPHcArmAkYCXyEG4BEFMbqbMNLKiHLSV0sCuhpvbMqf+EZ+cCXFm2xrwMaY2Eop
vzMTIqtozaCt1zZsIX+xDnIqYLRMcBDAwGMseizMphX7L9HfijWdllq58+s1Yw93
eGaLIKXm/OZENAlq2aQO+55jI8y3cV8mi9a2LFYUex2dDvaXaR6WSGk1znVGmBnq
UKb2CFZZMu84Q+FHm2lhD4LKQ9q2bOEtdS2Gd9MKmFA1/qdfuOOWWrtJ3gxpMCae
PTJ+hPIeN2o8Bi/bp0xsGVHaUDFfPZKjJBlUeAZB4RbieWXpd6Pbl3XIqc5fA7iD
dEG392/hDwhAofINljmEmi2DY6sDWEv3Oxv7qUqMyvRQQlryWGHBIqGVXMPR92s5
o/uklR+PJ3QKs+uWuB02ijh5XRtdXmS4Up8KCbBEcpbIkoNzUKaclF4UwlAZ8UyK
47K9iFWFTE0HNLuxXcgXbyvWfWIo314ZKBwGMBVbYspqrROFbVBdZxZPu+51xeNu
r2RC45OHt8EQzjvAeHKqEs/lM4gEFojFbbHzsCDiLYcpQzY+xX6PqvMzCIJ/Mg1R
L4gR9RNfnYxzclQoKo6upWU0nV3/j6aSyGXPBADagXMRwsGUBBMBCAA+AhsDBQsJ
CAcCBhUICQoLAgQWAgMBAh4BAheAFiEEyiYsbIPeTS+yijMqOmpNuDnqptcFAmEG
Yw8FCQsqBFEACgkQOmpNuDnqptc5mw//a8E4zzOIIs6ve8KkUfz6RVdVAGOkplOJ
9cnIIbopms265ceD0KSpqlLkgGONn/ROAvOe1xrJCw2SiELlc4Z/kM4nrwVaZvkn
F3pJCAOTDBhJlqXeMSGLDDEDV5k/nUeIGanmj4wAfkvKzjBMJSaZau3BCB18v/mI
0foEqIdUFFukoHNOu8mk4ZHRzdZqYu+f1waZR/tLGK71Dl916itsk+EbSir+XSdg
SJgn63f1p0bL2DOPLjShgs+o6L/Hvy3Jdq5nlfbSUHfqT213Y1Ld5k0ChNDPcSZo
F9mgFH9vUyE6G6gTWauH5EWiG/2HrDaaBQQQtXAPEUqElDpzfyPEoJriMgb6ezeA
Swt1Hsyk8WXkbYHZvuti0oCowWpE39NIIXIYzZoT0h+MKMsvkJT/FsRa2b7FhnMi
SNQjVbZdTVX+6SAzCxnS6Mb4fojXlWz3TFAq4uev3xPG5OVi5VdkvzO6sj2XVEoi
U+9jG06sl6gcmhciBXerPG8XJeQILPyfD8+vHj2IFnrQD7ORMBBFTYddmAkvrKop
suYACVTZqTDaxvih9VMgj7KFZAQXpylDMcS+IBSJIfGSOq1SQAER/KJlvKGKMmt5
ego5oQcR73sPJdCuFzo+Ia/dr1PCM2tYTb1AMJ+hBRSPV1n7XOleel5pKNkBDzNh
s2Ne6r9xAHTCwZQEEwEIAD4CGwMFCwkIBwIGFQgJCgsCBBYCAwECHgECF4AWIQTK
Jixsg95NL7KKMyo6ak24Oeqm1wUCXyCXwgUJCUl/BAAKCRA6ak24Oeqm18ihD/9e
xIQawza37Xn1jshz56AVNV8LUQ/kYKYRhaIlHkYq7iRIUCs43RloPK1M332SgOQm
ZjrZfBVA2GmtwuMvE9y4LLp6cFUvEwr5npXURwafEnWmvs33QnSdenYN3U7vVb/2
U3Zq4qPA52ROWqUCYpjlrqmlcAVtliDad4k6lI7tl7PFCM/zenq1q4jWNO8XLCO7
LXF7JuntkKJhZ8ou1mtmTX3ch9lRG5+LTobidEv/8q3X5pTm3LmyiSLjpCdOkzRp
TvcPkRlqPnJVYJx5Ob7CO7GvA3Wb0ul+u532cxbhwNbDyFXZ5zUkJ5345DS8I5d0
uHtDCFBx0fLTup8EA9DzSRFh7khtA/BzNxkfQjDwdmW4VuLPSbivo7ITVzuGIB3c
LanF6lBE97UnXRiSQapsoD+8VQIv+LRX0I283A2RcAhwBYN+vS1Y7x7cF/uOBiSe
9wY4kg40lNBEH4UGnhzi6tHY/Q0VJSjTi/4MrMWWqwIJ1tseWdS+9GussBcCarFs
bU8iFStuwaNwr3j5A1O2GA8usNU0U7wsfBcYE5AmxsL5PPXE0wvLqhbvJ5EzFryG
AlibxnIglGgTVN/XDSBHVE3hGT0lzXGFpbrUn5/hTvAxLmJEAIvm0KFE69hXSBur
B0lYdPYyRrRpYzBAttH3iYx8IoeqeYeptoRd45M4rsLBlAQTAQgAPgIbAwULCQgH
AgYVCAkKCwIEFgIDAQIeAQIXgBYhBMomLGyD3k0vsoozKjpqTbg56qbXBQJdU7bb
BQkHZ4YdAAoJEDpqTbg56qbXvqEP/1AY14abRRf9fw9jo4xqdS4Lm2X9EjbGjllt
yTGBKU0qB2G4T2FysI5fviyZ0UqSTcSjF9dNr5hpquNc+r5l+qA6ICTtPJQGNmKJ
GKqCDuta+xRrSJ/E/76g3xpX1tNPz5a+RTadcQ8u29qhJNef/MTVu/t0iEHXe7YO
7c8hWhRAF9yD23I2QxD6J8BDGNSCFs8p6qyiqXVupje/nrVJWDoP4ip4DmzdDzHG
97jBzy8WDBGxabi6AVMZEd0uEAVzcuUXGYUOE8w29CC4+H0yJ8Ea2EVwcF0XaVRN
1d9+GIqkJDf6pQ/9g/Su6sv4p7xoE0FeVTrz7aXQmsKPJKcOPdrlEpY6BaTZJJp1
SJrToYYdEFpNWzkAA58vS9oht5QzFK/si2DyOSofb/092gIM4XOc1LULqj4zG08W
aNlIadrnBKXJShsKtxEYvWYPnDivXowoUgJJVAzmezrXtubS1ZLSrIABGJ02Ddto
uhK1/rjDKTlBTB9WPWG5DNGaTuizc46KTjgn6cXwGqWhbRsCwneYWAlWotblToal
tRFpWyfGCe7hW5F50eD8kLWDLsmo0BKre+UTGYEkOw1mOA9YqWdR7PLEzT5Q/c4Z
vgBU+bvJVRlYHde4/KTbnrms5YQXJfLX+g6scCCKMPl3gU8Z7izHLRYfzwTP6cE1
yG37WO5XwsGUBBMBCAA+AhsDBQsJCAcCBhUICQoLAgQWAgMBAh4BAheAFiEEyiYs
bIPeTS+yijMqOmpNuDnqptcFAltgyTIFCQV0mHQACgkQOmpNuDnqptf4Jw/+NPk5
FlGdkC03/7t5cAqNUWoJhui4OivXZzeM40+2G0+tFFHI54z/NTwgigWgEVd9zs9U
Tpu58yJ6PFAWSf1zK3sNHwmjdrKgIp0CaQ3GLDw4/CmC+y7gZueamNcTGXQVR0id
/GrI+y+s34/rcby+K2qCfnWAZtuCtj+MdfR8iaCy5s4+KKJ8mpOwnQj/fdEuJVwM
Npt6OLYpDRI3vmNWFwJif+N8+aQKSH8jC2/o+2QuEEa5FbiVeBeMjOJjniv3Vmpc
jN8WR9pKNNsEhWaMb/ZBoIjxBEygxg/QBaJkIX/nFurWDD8poXyfzzojVKR/JpB8
MVMIU25ju/iw3iCjrUDt3hxyrjAwF4EyIiWLh6GQJ8aBjw7yFFhech5Sz6vj6jNQ
xcHea2LpS4UiQNAWKqDwHKwi4AJAaMLn/CLrcWKeqhsZoKfDIZggAIPLeyJscwgs
EFKBBcteBTd0Sxrwva2WgfaqtZbF9hqWMhf2bfB1Q/gsv3+tyanWzMFsbA0NyZCu
YHf62zLywfxXJFtdvdmP8d0Nq437NGFmVKnlvHImzr9+82YsFV6UWEqOXPLX4Oxq
eChjlQAJkXRTg6fJA9jXEulM5yGuDtnZrqj1CUssJ1j4ky002Ldh1ipHpbNTCi35
AASumHnLTqOQ7ETrN4uESqk0HRV9lHd5j6e+Jc7CwZQEEwEIAD4CGwMFCwkIBwIG
FQgJCgsCBBYCAwECHgECF4AWIQTKJixsg95NL7KKMyo6ak24Oeqm1wUCWvy45gUJ
BaLeqAAKCRA6ak24Oeqm16ZdD/9O0TlD0H8XHg1lev1QfUecoRbaye2SQvYmzI0+
6aMDcXxkTTqCBbGM3lgrMmlpeOYygTiAPOIimCUvtyhxmYH6/eJt8fbCxURVvCOT
Wps1Vo3UamqL/ojYKkKSsQNckUChev3ffCLWrtN9ScV9+GycAIwL7d4DxzU43j9e
1qexgsndJzDmTIBpLS3Ap9q5dPmUvvozekK0MSD3F9iH5Wwsu4NflycC/XOR43cp
+O7M3gCanNF32eaBxHdr0pXbLSoDfWvYcyEb0kt6W7pbyJP4ek7kbdKiUuVo6MjK
HljNDaA/8/lC36Wo/HDXGUbZ5tV2xH8hE4htj9WI9x5ISFT5pMfsr8KKrFKpk3+1
xIU2wY4quAQvh7EoviOH8TWoTn0SaHoDg9tTIKqvDjQD2fkbsoNlieCb2nezcRqs
pLM4ytaGh/V4AEHjuDQoYy6szgaUpQkQdfppe+iwon26dvvQYtPMtvuFgRpQCTyk
611Hxq0U2729nJWmZhYxDsiv5mHclO3qNw8WSgTbnXKBtmWT8Hl9bzlTh4Ek+v8L
pLvzipNtnfvi0msRaEPpO3enqu2pIXIpCOYxsLGr+0NWWdzQdIxAmDb7jsNtTn19
p/v6UH/5UPyu/gyYXVBkfOLIENf9WkvHYqIG/LabIx8L+oRIztOkUSDdodytBNl3
XoSMTcLBfQQTAQgAJwUCV81kPgIbAwUJA8JnAAULCQgHAgYVCAkKCwIEFgIDAQIe
AQIXgAAKCRA6ak24Oeqm18TbD/wJ0hnYU5jZQJx20TMBAJEvXbl99TWXkT2eXrS+
PH/Rz+SQ223vuJU6XfnBodDBjPMX3T49f0IMQ4O19mjCEQEjBBnEd/CbKnp0KpMN
zPJ4vxBtQM0T5EApJoF6yI8UtT7n3xAvC9OvQXuJ48AB/i4sw327r02EkP5/UrKy
0z0aJoHdPjGrO/ZxDw0hfU1/rw07FsbkLYK2tRvH8x5vR4UEAeTBa1T+wsVySyLk
AQjZDRk9N2NLf6shR5IcqeT+C3OCr89LbBLGXC3O0D/GdLa77C/CdffO5I5s+LPd
QyUq/2Uf9/gwGMICpmK/oKIkvBoeCAb5nt6ieWoAIpCRkUNGt9LKJDrJ7JgMkStX
L4sy7gRrmaj22ajRx1r+r03tGP9+nJVBbT8VzWvekHXv+/W7ah5XDCQeoE9BR7lz
8dS3MgJZrRV/SXGexqs4tUycR6Y5FGU4KDFxMMiJiqlSl9DuK5Dr5h3KJ3okJoOf
m5s4u8GN9zoxbKVo0qQVmfsuA/YNKKzwKLfD7s4a3IOWUn0a9Z2aELpPiJZR2zu8
W50DgMoTQSI0VeNx1wxtcc0aZtab8QF0Yqxa2AAFccmjAyfsgGXKnaEGa1URevv6
kED9+DebVQfZCphBTJ8bAilVEO3rvEQyD5Xnmto/OE2o6Z4sH5WIPldHMPs++Zkq
txVdJcJGBBARAgAGBQJXzWdJAAoJEP5URL5nAhYblGgAn114lxpgQe6JgCaGmgCI
ozeEb2iRAKCLp4EYGYrQk36CcZlA6P7h0b5YDsLBXAQQAQgABgUCV81oxwAKCRAu
s4QBLrcTWPyvD/97yqSpzsOYI5cjXAyWfRdOS8cZMPGVrgapj7Dq4KLm1fv5qf2W
ZdxKk91jNf0Qi25cWF6gMBjDZIbLKPP0Gbo4UY5NkMtkoCDdL/u+vIIG7q8mgUPJ
F8yqVtWSSlSvYT0h/lmPWJuRzT+0U1HcKp3NLrefpES+qjVDPa43Sk0LF9BU+qAT
8tdhohhXSdWhsVDF+lrgWrPFL8ywzH07GSbZLZAtxrGzqAqhlpX6SLu9Jc/7an70
dOmRJWVo0e7k8mogDT/Cr+eaLmIWk7X02TLVOVD+5jTYu39oJjbRne2NvQHF3X1/
U0O7QaVxMyPyZ7iLVlf8tBqGb9dZNLUD4V+12WCWh2iHunWi05aDXQjL/JdaXz0s
4kWjbBmqUCc+4i9KIJV6sfAz719QzzjdwDY4M/Zc8NWD71lwDQjIxLJ5OGlzqBjk
FiWef6xKYoCloDk+IDKBflamBKZxm7YVGCvylVjoyWlcTTD9/utS1WUGWkIJkbmH
9w7gZjNvWzCznVmwn20qn6R2x28AwQkHVos/j8LeD3s4Hi9CYOTFpp4dJA2qqK+v
Ucvl29dntZ9TSNgjDQksvkM6XTDhsG2uhyBzWBpphWsRKzti5pIZjBTDXD+a461Q
6/E1yQ1GKaSwr4BvoJxRSVudPOq0tvaSgohgJKDBMhCm3gZ0bg5UvGYBgcLBXAQQ
AQgABgUCV81qOQAKCRB/6j2mFpx31g4tD/0Xl9kAxrL3V7unzRQT7rLFfXYiYB83
0yo7zImoHXjHy/qWr9KmTTgyqwM/BGDuMzqmNMJ+eYmPuTZlqhucp4X6PHqZ0XSS
umX9mRH1dQAQ6LSscgIVnx+tbJheW4wur1wFb93Rwj/1jScEmHpuWzte3tKLqHxo
6dky1ahYMp4XxmCWXcvWstrPahS8dKNV5Ct94Zqel15kZ7jKDN1bjO0WkmiERUhV
XYNfnnnW5hfMIcZRMYgTSootauMohHXM3y3a0ZSR4QvJhZ7/5WeDsQNDgGQUWNCj
HKi/9f+o93d7hSX1KD77Y6rjcjHn4USxR5DUCCA/EYZcPEH0F8y8Nh9Y+NIlNkV7
le+bmQvEEMFLQB3RanU7RlxXpXmUZZ9wTSCnBaUeIo96OqiHeQlv/gcEw8EZcANf
n8SvjRHCB/iMuJ9j/OwrHBCUD5jV8YnKjoZO66TPuVN7V6+EILtkc9mLkxp6Gjsc
yM0NI0EDOeHWTpGc9OXtMwYYzVgID61XWSKl8ti1YWz7yj3ztWMrhiX9wPlmyp1y
NU3aj0m7WHAUEIrFTekUXHPW8cLDx4qIfUwu8JZaV97Qdb+gyZu1A+JHBrkxK86p
gsmvlQY0Pf/r1oj9+YsRL26bafATvf6hC8EPT198z0j7xnyqXbwcT51ETuX5e1gb
w88aP0McXGuf8sLBXAQQAQgABgUCV81xGAAKCRD/JVEZb7j9gNwtEACvLtyNdHUL
qwzb8xlPyd8iVuVAJc0pFJpvoVkZPOgMzzuj08+oPSJ/QFgUIQH6uu+26iw22lSO
+1a+evlF/IhlN8Q9N5oQc5QkBBWgLMZ3CxoxdbP/bHe6zsNuvFiOt2uemJBzwgaD
sZ1cJxQM68mv1FEOhYaoeFfoGs9mEAoEWVefEqot2MMlute3jUm9rv88EHtypFAf
fsnb3tHEDubKqV9Qy1rBmKmsJtN5MwlpAErk2hTDHYmQE8qZteBmWNRD3E2erCPG
X40NSUIFjUjmS5xk/KuUIftw17yV41W2mhB3fkgARGWZ4YKDGz1QxF+lofdaVVkK
DB3PsmaQz9vetVUjHRwmuwwJTjze1adatuX020B8zEfm9fwcLqKyYnmpsTUjc/W9
F9piNObD0f315VHKP+JYx7jVYKlwQ8QiLQFGMFrNRL8adFl30mHGeNJ2QpHS2JUB
4uXIjxdcGZPQxsdu6klZJ/m0mq0qBsE35786hNtlucH5TqQpn/KFF16ZBE2Cg9zg
eL6QtmBS6y/UJyNMvvq6Osd6r6b4GaeKNZpkfCFZUA12mbQrSgKI/+byPp+RvFhL
whh9/3lKcgXFUiFFICTjjY0IR23DAzmLP5dEWrewqSt+R/4Z4m8Cg3+Soe6Px1sk
GtM7tRP/nCB0Q4earqd6fQjWqCwc+fUtkMJGBBARAgAGBQJXzZzaAAoJEO9inFQJ
sG4QiEEAn32czaN09F5W6BjESRJvTiOKd7rjAJ41aImI9sWT937VF6clGHu6WErp
OMLAXAQQAQgABgUCV82d0AAKCRBY0O5kikizu1PTCAC8ehoU8we5vC8rhg1pOyat
1SUCIgk18vWByL6OpaOVjcKU70b1sMPJhalzlyS7eetXKeXid3xmVfkQR/mGB+Sb
t49clcywX+veclk1ABcBRtHRy6FDdd/DKpka+mJqVyKmeq0mC5aJ18zjta/nSyYR
gG16ivBNzO6Qb3mLhvkrHo9IkIXZ14AZcm9ig/KDSlwswHYtj+dEkf/WN9+LeVW+
tGPg6JCaTXdsSb8CGtCNTHGIgx9XcshAgH8zff6F05Yz9XiHTRQFnQVS0IqIN4VX
/olBpZcCcBj2xMP5uxKQTJOQRe2UJqxrQabMwAN7h+oxty/g/4xIvFhP2G17JGSc
wsBzBBABCAAdFiEE8H2FyqGKz0ajRv0BfH/G6oYztOoFAlj9GGYACgkQfH/G6oYz
tOo13wf9EOvP9JMIxgAoyO3Lsj045hFivwxEIJ+0qEgZ4ztARugTtY3lzceOhKDu
W9m2wjuhOTmluomTwaJkZaSamCUtOJRMuFgGnYlU9J6dUCCOp5jJTZodLntGLYY9
Kgza3uJK4r/y36uB1OWFanClFhu0gOZj4YwNArk7qqIzTAwu27pL/7JUaeNBZskx
izM5MmVWskIunJnFMUCNB0EM549f49idRb+fOaTwr/heRNx/FBmzfPDr7qDvsffZ
P+PAPG/HKnVg2H77i78gBqW8d/3nKWs0fwMlHx9QMLwhQRwGEfU6+8/7NNa6yYNq
ago7UwqUyxXJexB1V9jghp/br6oSLcLAcwQQAQgAHRYhBPIydeS/EK/B32kUptvS
zok+LRyHBQJZZABEAAoJENvSzok+LRyHnPEH/0wiVQW8C5+bcR2X84zA1+WM0yog
GpDk2K4hISGGTzXLEYnwJpUmc03sR38jgy9V/xREmjzHqR7JN/wM7xGbwUBj56Gq
JSrYPTNIp5WM9nJrhaGScA+ESonipYeGPaLPe0Ktr+txS4HHuggAU0L3MgZDkioA
6ZlZwx4+23eqvI2+j99yVcO/ghooJfDOSjzQL7dG4e+CwQ37Yv+FCZz4l5Lo0nNn
BIBUncu9Za7rcXBjfOzXzPy0jsVA7V4E4uQINxjeFgkkuvPxXw/bL0+JDhB6WQqm
w1PYUxR/0LN6iYU27ykW2lidzS7dNV3coh86U1eOQMfbvJhLU5o2pcsNoO/CwHME
EAEIAB0WIQTS+qtiH2GNQmhbQntj1yZMBWh9fgUCWXdqbQAKCRBj1yZMBWh9fuFF
CACoAVFZQ7LEApYnZZTe4GOGEul6OxxNgz/hDOF+21g1dNrUyGcdorJDe7hLG+v0
sKdmI4EQmNn7uzA652tIbdTPwmvv+/J6t/u4u7x4cVbW37iFDovFv3iFPl4I8oLh
APQIbNfGgGFl0K3lmfwyShSSCc2zLVFnx1nO7AmGs5uMceX1MZAniOI8vlQZEUkq
nRIgjOoRTy7On9+tFdJMhINiBmYrVV2TlK3Mtlj/8MzDyYwxIM6UP9qxz1aErUG6
jRWFVc+JmXFai6FvvFyleTVbfJTE5x2EzzkaIj/AEWTI1FhTE6JSwYAx5B2Lxpou
Mdt8hWAz1GVa4wbUmpOH3AvUwsFzBBABCAAdFiEEGZSQ3eyKtb467Lw+jNsAIwB6
Jd0FAll3bR8ACgkQjNsAIwB6Jd2tuA//bd7V26jflegaq01EaNlU+giETHNdFYrO
DTbu4n7DIu9YfXBcbomYv8PMv/wpHN7FXFn66saJo4LS8BnHJXulkdabPi6DrAQJ
1JMBDyPVu0BIN+w2syw1Qz0lPf3cWIfLkLcknLcGjKxOpXuVnkOt+Y7BtVFc/z9N
LYRMwyGac5T94X4BPPpkvDtZEcbnwHb+R6YhzLk1VclVaPjy/XP9JNTkSJHTZW4x
QwTu1lcFWXSbX0Y+IB7sCyOOUzv38wXWDAByDvEWhKJ0tvGfIWsQzrqQ82wmzhNS
RL01n5naApXhrqHN7elRzq3Es2K1TZe7EaRZSkY5nQWKu7SpgbC5uCCV3rRjVFRE
Smh+yBz9iuq9yFoFO++rJntjkJYQHlvvqgR4baO1PrRA2Hgi2sJ0ijQgFUsPRnly
OEWCrtcgZ3SeuMBhKdt8iE3K832zLNN36o+YBl66/l1LU1o2G/TMJKkVY+dFUgGr
BHH4jySkrT6NS2wafIGt3lRYw6rQbZmzRVQwt34x9XBvUd+FLg+7ZBTC4wboq4JC
+SUoEOXyja8mDXklIC3TA3Rq5TcMiDd+EndXTcLfBZRmQPqo04V+Lr3KDaorJ6qr
oyj1C7fV5lQwKcgs3Kjo+bR8JEHszRfyu+0mfIHDkKVV4Uj6Pr2IJ6MJU2w7zj2b
GwAxpMJZFdHCwHMEEAEIAB0WIQQKrHdbtkN6jZr3o6z+B4QRf7zhHQUCWX6wygAK
CRD+B4QRf7zhHZRaB/9gV3mmQPxboukhnjo6D2jlDZK5e/qJ0IgnjR9O5VROiFtP
lHe11AXjYzca9rSLAfKuLiPF1tzGEC5zWxDbV4gQ+fcn8Lt8iHJvLei1HXht9T1D
yNMU3njgAvVmpIPPmhyqYihoMIc9nlJXBlQdAUu4TZrPOwxXI1vjanCotHWhoHb/
RlltsFysUPIcwOo+1iFrBFMAP+0cd+IwwIMIxg69rGGwU92e0fpotBeRdVn1VSKg
A6QXjWCERjc5Lq3ZAMtLTOzkCg0SU6X1XFb/4VgfJqDZpb0V//sriSG5kcpTiN8/
ZTExFfNTBja/JCeuQKlAok3aC6KlLAG3DdLQ9juhwsFcBBABCgAGBQJZfuvbAAoJ
ED/btVCEzF2EHfMP/R4UFAt+vgeUBkgg82Sh7lq8YgAxosNLYbUj/cZ+vrr66SqW
uR2gTQVQKsSlS0yf0vtz6bwKA5W/DMN2x7psGx4rMWwjivr74i0hxy1wtvS1xNiI
0YoUJwuFrKsrQ8Gqx00+7fwJBb5r7XXQd9+eimwpxD/Co0uykS+dPw5A6imSyW/E
qMPVUJ37hl8A6N4AhLjGVcg+iKRUYsxwoo6WeohLNMexx4HIIGwSv5+PV9SgL/dc
nEzvpedAXfNwoQpgtIZgm5krYELNumWsQchCPX4Z7Koe83Fe1ZMnyxsOSsYCsdSh
FCB0wsqskXXLxkSEQNUVl+LbDo0mYxErFpQw4dpI4W443lX9lUg+qGmNeE6rYzUb
nJgz2DHZnRTCuOo5O3kTptO7BPzfV8BkhaCh+Xwf4k5GTdFJETc9g0ImJQqH2CJ6
0dRZrjOtmqs3y56DPi0S3PaPFwxviC72aihtOaBwX9x3W6/XX0Ocg/tgYuWKlqCr
VCXzohkv4iej9PdHSbyIusTPjoBdEmZpGFMOm/+fhfoZCqK8aD52jEhA8jnK85Qs
bS4k7vcpORk4EfKCkJRoztnA0u0gUKzeHw4d4sYDPSklp0/Tks29bhl2c2PiIgug
ZvlOTPDEpqPi20Gk/3Z38f+ssL1QMBl1yMt/ZGRvpXdYzGAcJlJIlg5rPzRIwsBc
BBABCAAGBQJZfz95AAoJEOyU0Y9/BZl+07UIAKqtOy6PSZOfA+A9eBKm5Bzrpr5r
GG45MFomC7gVes19j2kr1RTv6NaqPtHiCHBVjzt44unwzGAYZdrbrm+IShNA2ys3
Qg83zK1P0omElqPHqdyq16eJTot8hSQs9liIYv7/+a8/cBWf3wbn2FYyDymF87mU
yEnIstq9s/V+Y8dcEztnaFtlgX/0RQgKRdKFAQWWPZrBSW5gOx1P9on5d4mvAiS6
9nTSxXhXiyDY6srS3ysHFUB1dxjljWxdzWZ5CfbL8N7o0H4sexr3GiyCys+QftAV
hVZgPASBonOt8YIa2JO8DCR5ss7DzIrVODkjefEMEhGQIB3TpvtoSezMpDvCwFwE
EAECAAYFAlmKrZQACgkQNYjaQTyYl5t/5wf/TgQ5gXkDLmDUrPQnbBNPKbT5d0d9
GDSSEyI5CWMlP8H2Iq5UGVm4lMbqZXG31oddkX8b6iTiS15S9Wx9Zd3ypz1g2qGt
w18s+aj2ZmEVRKR7Hsx6npAR4mxq7tsrhjdMOqMEWyFa+x9rwFeB26EZvuQIR/mN
BDoTBdfkubK4VHDYcke614wFf3xTi8pKcUVXxLex0nWNFgLPqKHLnBF39LB71fie
LecedzVjno29VEVMUrHX8eVmRyuDbBcyMEbmbeArQBHM+gTOUu6zXiLqNVACVfoq
TYJWxTbLFOfLHmiJ4RO+pEowFvDM4QjsT6A4qQ8VlMeblmYwJvGg5uV8EMLBcwQQ
AQgAHRYhBOXteiff3POBgvXkNxJw+mt9RGaHBQJZm1fcAAoJEBJw+mt9RGaHyKUP
/3xI4s0qNzb89RtUiHPM6FeHRuJwZLzlAkrYMVxI/Ik2SCiF43RqcFXBjgjh02pO
ee7txNzEm6fgx8LJMr/UoUCLYufJO3uE4zcZ8hQzaNedpzwdMF1aycrbAln113rI
KUk/Po+Kl57XVSpXLveH8Dr13/7az6pIpE653ss07+YL+KuDJA5MKO6YsD4rWeoc
6TNpEZVJBGWOrV+bSzLSp2GExSwX/E7kmsd2x9003FHSzyRHVYUbamxOpp8IgScZ
D4FE0T5nyr5qv9OtYBKJZjZqcox10DcDNMlU3aU4F9X7GVQbJOwi7xgnZENteogO
cdbbJmJVoY8t4OdcF6WT0S/T7l6OJmVuE/gu1BNyrGaX3yFPq1hQ8p7rY1Myd4V5
XXB/yIElRG4g8SrztXhmqLLGDk82VZsWBGQxOrhX1lqw4Ud9rDJQYc9GihjRglbm
lSVYMZApj+KznkdFN0HmjGl9ixYPk8bjs9FftaLQTI9cQwTpM+MkCSXVEHxoDev1
0i2GIr11jhbem9Ql9OMkVhZZ89sYR7ssQt9YkKXL9fq1SjxVSAhA1MGOHdrAU9lK
dzTfuVawVIxn/IvqNBo4PbNp/WNnlFZ7j5YUxyW0yysByUbpOKerVAInlrgtyjt7
O7ry/56rXQSZ/xlG9FJICcennkmktqaay2m6/6Tz5MrTwsFzBBABCgAdFiEEQrDK
AAwloAbJeqDkeJegJidELZQFAltzJUgACgkQeJegJidELZQYRw//Qe2JsQFl25T7
s30dDvyPpUY/eUaVWU3amAzLKarlAXxo2bSuUn5HzkKSRIh3xyk8vBh3mnZqKIYK
xsJvFlOv2jKkKEP8zmxuN4FksHwUDna7q+lJ7PAzUHvBpMlt4al5XfzX0axXXd0C
8vp755eU4wuML6ydNWO30aavXBgFBq3Zu7fG2ONNs55j5WahJ7GLtPnekix2W+Uh
SnFe+UZou6TyCBKE3BY5+yPqwlNX7xLn4Sc4s9voyG4R72y2GUZDp4SQgjJhHh/v
kdAuINhKibHoNsz8mpgMQP1CFc/E4qK6mhKh981w2PXO88vQFlDFwjkC7Ee9zXw2
dZ8MJNQKy7SH6fGAKesHi9eTdfkpx3xUb7LJJjpikMfh/EPtMp7EHRfXQOYVV+RQ
ltilSUTpQmiJuo7No4HlhZJFoQ1Nj9o0IREUtzjcrKPxq50SEXhkSkdlLgxI5F/p
ov6GzvU4PN3aaSexCsii5Asl6mpykkX+4+S666VThp7wYUtXwzXHFR1eiu2iJVVQ
7od2S3I9kV6WLRUf2uaPEIh9lcMSUgzF70fTdeU4WYjOcj5tvdlOZ0waxd1KWs+s
ei+A9GQe6vFtncDouGeBj+Vvju83mHxN+iFKDt0B1o7GylhKmiuxV7v1cmt3TeIM
hR8GInyO7Y3KlBnGeXnU3RqoH9NntXjCdQQQFgoAHRYhBOk/24GEriQcNFziNcIf
+f3IeqlvBQJbcyVNAAoJEMIf+f3IeqlvY70A/Rw6pI//tE8uk59n1yTkCauMa1yk
DwfZiUCpo62k6avWAP4466XrMwU7Ae7FGJ3tD2ujXCwGZuf42AoMx3R58s5fA8LA
cwQQAQoAHRYhBPaa/ANZP12Ga3SNkIveqllSeEmDBQJbcyVQAAoJEIveqllSeEmD
Sq0H/1gG0VlC7G1DR22qLg13QQAGu4gagOYtfzqxc9kgd5l0RgarkowMHabr3ue/
Tpfya9QCO68P4F0cD9Q3QBI9KdJbnT226FQGHoToCkUto9TXuRITYHlcCCEb2XtC
qTM5nIsf2kZcjXJpTW+1/0wn5+cku0q3aBWyMDoo98GXzIgD5+C90xpg372RLxms
HhCPl0iowPZthnGFJIuK/lq+32hfnhK1X66uuk/91TM7D+oL/auErunKDe0w3wAy
pBdtHmSIAj6neDp0q9aHmn2LNQujlF02y8Bda6GxW+1k0zRjJTqhQrOOrU/xbM4Z
M67x52FPQB1eTCv2mdODCuSp5lDCwPMEEAEIAB0WIQRbgMV1Qpjwy1XY7Wq8734p
SwkuKAUCW3MqdgAKCRC8734pSwkuKB1ODACHFGsqG+TdJvEYub3kYnVtiIrYHnXT
R/L4WMwrjyteZwWdaSSSs8yGvjxbo0ScBVO8Od5ksiIHYnuWTm0kZQs5XN9Hfis4
YnSyieL4pFj0S89NoHet82EeOpk+9YOrMCnBJTUbYeSZsuWRvMyNIGIknRcRu+t3
jdkUgqQiug36Ptb6a3/52CnkWQzzO6heGaf8W0Ob2qtBW2SsDndvuJwPEsLaolBh
B6ZitEy7udXyO8fCE9g4k3WKnkFAoBB+Ajh0hQTuq1QcAu7x+bYIrwMVKPQuJP0J
7p1hG41xjHxhI352JwUO4hnyNhgBPCM3TyPn3oqbEsZHtMBj5B35pW2nQBSbnx7k
OWJoYCCLEv5HYde4wXQ1Ohu0Mz5xHk3E0YTQSn7l5N3cA8mjH0R6p9aoGTza33EH
r6rZor11sxNPZe0mTpXHkVAzoH2Ldi+cUYoeou2vm+jPkA3WVjsNvtfluh94MJ8E
aUrJ3VuujhbMaiC4B5be4lgbm1lQ6VMbqIrCwPMEEAEIAB0WIQSUpcmgPC/lyjsJ
XY4f33I89GK2sQUCW3MqlQAKCRAf33I89GK2sSccC/9ZARYdsFosC1m03/6tmvvN
SS68T03Yk/GOxPNpAau2wO2Pg7GtPDH90XR58rYh5xw4q1oYujH+HM3p/6yOwk6c
6djjgtWctEBbcG9eS7bKAcKFcrvX2fhEDIso9T6Oh2+ZIkiHGUO9E0tePeFiQYyr
H/FNFlV346oHeKSKsR2E8hHH50FWm8sRYGoxuHJGzVpb01mNNJv0Xf8vO42jwW98
DftOZgoID66+aR4uc/7oM7IuUGkU+ZqCPK/h1McJpL1DvwcoFNDOieQZJzgrArx5
6ROGo8dW0ma0EyYFkO/lUN8BBIIVVs06lP23Vf9HBdGk8r2Tx5QM9HKIMIt5Lla8
le8S9Y2XgqRRwkpU8faQMvgYrf1Fipd1U1rIyRT01mpdon3VGXMN1vMMgS/IreRb
SqdVA6ZXOHsRTgv0prkzZVGDfsLPGaFTL2HMdXeteEcbf1e3Dvgw8aF3UHyuWly2
YdFQnx5GjO0Rj+b9f4AzV9FpPSSjxBD8ETNNB0krqEPCRgQQEQIABgUCW3NeUgAK
CRCpYLEBFjT4QqVPAJwPrcRMzp9EhRe41o4NR7r68cboNQCfR6URYVJm2Vw+jQf2
c4hvItw+5M7CwXMEEAEIAB0WIQRUBuzoNmXanSAdNXILrwyce2rp8gUCW3hUNwAK
CRALrwyce2rp8lBFD/46NMEps6R19BTyx7EYdvTXVZ62REgyntubYWJPHEWAQ3Sh
Ajd+8/nO989RJOA+7HQO4ELCf0aXYTvr0tAgXm9clN7T0mdm7nFFYcC7kJI1Q/63
LHftq4LWIeoAxjbBu6rqhKf7U1ef+LwkK68qcL5/A28+vY4A7ed81st86s2nGH/0
3KHasu9SCsABHTWKPpmPYzqH6H9GScRAfvwUngwdma8JARd791Tfff3D0835s+V0
4+TEFaE0RiFKZcsqs6hknnGCEkHCp72tfb/zvrTaMf3YA2gJN8jPOXttevTzSE54
kkDKKF1cqk0nI50YRd5vk7Rh8qMOtFCKhUf/Qq4kajMl0MaqPOxZeLxpYhbCoq66
3rXSGll5ZVTXjvd3Q+bzzqtyNI1EYif74pzZStcnBi5d/PD3XrnsmLJ45QtTej9R
K9QAzXoyrWR1ngD0B4o3CDIx+Dv2cmywe6js5+lHYCN+iXY1UFxlcaBGtE7ZdQzW
vC5uFo/84KuZ9/oe6s3INFEf5wsjBszdyZjWRkhxkbZY7e+bAsXNfxZmdaNVSNrx
SzY3zPs5yhVzst8oaCzoPMX15U5tUiIvVqiXvTtXekOY1kU1jUbZyl8wAjGUTLmj
CPksNuAGlK3UXp4NIeyPwc8OWAuqcPzvN6+Hug2mUp9agXdgZtudhrhYPK89/8Jd
BBARAgAdFiEE5nZIevmTXuf7Qt35lZvAMV/NgGIFAlt5VmoACgkQlZvAMV/NgGIv
igCg06wV9ncHKiC8+xvcfECVfSOTLdYAn2J2bDIx3oldtzij3EIAggMfWDgGwsFz
BBABCgAdFiEE8HID/iPUW0zzYOYVjdCgzZlirmUFAlt5nH0ACgkQjdCgzZlirmWq
3Q//U2x5jTE2BoiLsK3O9wKf8w/dl2ggMciXUxvMO3CJEkBmPNx6Qt+b65IcCz+H
e29ENPVFqHOrLcHVgvxcCuzRImPTcT69ZRxCiIpLJ2r7BTWZCWdADieEI29U2HaD
nma/eMHK9DC4sphe0WT7+ojuhZR/KCunn6NV2uw+mi7cORjLh/i50dah5RAZOXtV
6mtC+zvw5gCXKBp45kvwzourLocSsHuJZkWxQUxoIhuKQPdGUzJ0Ze91F6OU0AxY
C3aHHLzXJn4J6FHM9W5vxf6k5ngEp+TUIPlSZTZ1J7YoW/t0XzLi2TUhnM8RF5Vz
q7RgJDBa8F9oI/vP/nC6nUsvnKrJVCzZAS0WPnad7twXLTWUCCrYqU+4hfAi9VeT
Z/PCWzO/1eQK5CBFz1wEvwfFzFqyuUmxYYmKg8jm/E0GWqsQ7qcCW0Fz9b61llUi
FZ+phfTEt2Cj+nlGEY5Xmjn4OzR4PLaTc66KF/kunyh4jP+bx3ipv69UjQetfzge
dJpWhMvEuPI07xh83E1ZxANe0dB9BWEtudJD4OFNWzgVAWNvvgNaseFs4+nE2YH0
qNF+HvfZHAJDh9/5P0pTvQP5B1dikd9HnJKlx9WA0+hKsSALi/mAAebT7PgggVqv
UEULBZENbGgNRDknz3eN7/Ecr9r9PDVmFEJPxqVrBrcJD8vCdQQQFggAHRYhBFMi
BEFRHK5DvalSBn+Dwv2ENls4BQJbenmiAAoJEH+Dwv2ENls4GzIA/3OnVVGjBwlL
0MqjeMynWrznsbfqmcuttMTeW3f0UPeaAQDi8WQRYPXfQF6UG38OoXiA4Bi+PHb+
9tcBW10m6PxiCMLAXAQQAQgABgUCW3qiIwAKCRAszDweu3TKO1nAB/43fUJri5ek
OTPCcKyT7yt/1Y7dhIMnH0txonq8tTILNLlBmkDtGK7RxwtkQIn4eF3MFY5hyJ13
utZfJtCDEOxA8JkEfe4WQrY0Kbtr5VfQsmkjKl4s7eed3uuqj4cFwhrSJur0HEkw
sXSdY4t6IkrSWPivQElHalcvRsGkQfQZvLlyjHbgtEt4W9RrWdNdLp60aYR9AfVM
4LXtVEH5IF0PQH286ap5P//PdnhzhDOf1Q20fwYdIScsbmON3C6fYvqyBIdQMQKs
s0F8+N0OHRjIBdaCFdF9yDKcCvLiyqK0rhElmoIS5zar3/N4mURVdQmzukJfFRgP
ZFqC8FIblXgOwsFcBBABCAAGBQJbjpbdAAoJENsSEG6LfruIfFgQALwQyTpQzrSb
x/xC3Wn+0awdFmjdxeqzvsHecfM42WEzs+HqJHQtklT02AbO3AmoVpEIcJ2lBbVF
YUP4jIKOkC8/Rll3M58uhd0pyGA+TiWNwKou2O/cmSWPmgLtFw/wZ6wpAeEk83AH
mn62UQy4jqdf0L2uqfsFrFVN1TdaPD9HOmUhAgZQHJ7GmcEf5WlS41OBEDYnSiC2
foNMQpqkQDqQyzalxh7b7m0TnH3YwIhtZQv6If1O7Pmfrygmducmc1qfI2YoiUKY
66VxGBGohyUXuvDDLin1xYVhEM/rkaSvKUBc4HZdGVufhExZwR/YHWcFnfROTv+C
Wfw5L0Q7XpRAaq+a/r535N+EhzfSCGt6Ej3Z70CINBOTIn54WMEBhIKC24uL2hYA
wJu2Tk5OgULMCyr+HIh9jpbDUgJJvewtrK8wsOR/awpEvV+W5JFdrlaZVOrC020A
pDagf6oqo1krvKgTBHpey6vMtOqmMHUgr4r+FtiQNKzRGQm5+NIiU+WxmwY0e3hC
UBa6QTnuQ63VS7/tsKPciBIvcvrTCJAqNh6+k2ZdGu7scT1FYDETtdim2ZEoQLqt
skwXO5epJSZmE8l1euWj44JVP0+jc3YazLLtfju078YSYeWl4H3foIpHds+A0fxy
HHfsgFy97xdG1Qreui1GLK2wqiHR0eAPwsDzBBABCgAdFiEEcPFq2N1m5DfW7AJX
aCAPgnigpWYFAluleWoACgkQaCAPgnigpWbw5AwAkhPTS+NyvcZXaMqbE8MWiG/O
4tsYosSyP9weGWRPU/BiPNJOvJSNyeL78uguBQLk7H9/A2UQ4geAAZz5OWG/Zrcm
SyIwzbv0Ry1wevxYPwoSpiLBvLDMvOaRRuX8gXdmN8L/51E+cCJ/iD6UEko/2Rfp
WDnPAK/h7KqPtsnpgLWMvXHz87/TSBfbvsxsbFvedz15alHSyQw3nyFLYs4ImBcp
vYBlAbwoX0/eqdB4+zGNlhZZPt3TLr6ApngkL+2bM2mKbySHb7Zmt2IN2mPGQ7R9
gZ1nIsPuGxF+fsLX7BqL3GkbpIZsjUVFImRZwcFXRc7aCIRd7ZoMIT7R4sY4ofGd
3i+c5zXLu7vsCGomuv4K++5tl5gTQq4fDbepbYs2brKucQbN0Kz5kvL3qEr1kEqO
6+0JUayS3cPWIWttFpOdrAPha7Bf/dj24Vr32DSMwPkUW70lbMDD0zGTsCXerVK3
87RQECYYyCL9n15c7ww3I5LdWLHEt6rOnFQvAsL/wsFzBBMBCAAdFiEE51nyfYoD
e/hl9xDtyCAq8QVScAQFAlyp5q8ACgkQyCAq8QVScAQ8Yw/+OM0C61RMmxQy3Uyc
+RHfFj/J3qJEMe70naTy05l63lalDrlqlONbBIVtcuXqgPUiPhuk/bRGMAflbhel
vqLW4QKfYa/2ayJ6cG7hnn75z4isiFd8jDB0dphzPmPSWqBkgmuiJAw5xTFtPTCj
TK9dhRaQMGYrK0eX7YoIydw5Z5AbmQ1xmfy6j8VmyqW+x/TgsC6pUVo1XL3zob4B
zS0YpM6/pTJShOku5ESzbEA7N7vRNfUb8IOdIPBdlzJ/uimblhOEfIOwDY7TL3Pj
xxAUqN4/ZP+C/QiiXSBelGsaknhmxvuT6Tfb8EhVegaRC+hWroW2AqlbLp8swOYW
wNPu6urwZwdB378L5smeeK7pqjckkch44C4plnNg6JEozCtcsTpiWUkbSCFiVeFf
NWdkOt1iGPdLs8devjyMnlglZORqVMPI8yTnizW7D3APLmIPSRM3/TH50SbhmECv
+1daivpZ0PlQoXYelUqRhIUX4ngV+Z5BR783Kn5BRCok5w1WzPcqsQc0AkOscmP1
pSS+X2OaQhrlY7yOhfv+FlXyE0FRpMQimuwrpeOsSB+1M+F7By5vji6s6eYrjeBA
tQVHu81uTzQPLCgQFk+xQzKIyACbFtGBzotQHVvbCsyH3+2i/srGsp6iLBRC7e6K
yM8VAGT5hT5Lv5cQBj0WuXgJO/7CwHMEEgEIAB0WIQR/7YQ0xer3wjH+RQwjRRsQ
eqA5QQUCZM+AkQAKCRAjRRsQeqA5QXSiCADCctD7KGGBqg+xhcYTWasC2pb66PJB
hMGVBXFNu7bw/xYyNzipQcgTjM4alyy41rfeYydm0OeHxPA1gInChSQns5M71N/w
ftea1+yDBlFzKzGRvwWL1avT8btR9uoaGVXawdIZ0SP7pNzMwvLNzWHdblr9SZEu
vHawExtANHXK/Rx0WGxSaRskXEUUL4viYpAe7rUg4k68dVR5wGONpqMHfmYBxaqN
oIAw5ByedUMGzce7gH7lt//ucRZa4aMaKsWCirc5Bx6pDYAUXis/ZcFaiJI8rMPv
VI8ErngdI+dDCcbHoR27U8PSkhsInjiqb65pkd0vNuoTl2hCXF+9GCePzsFNBFfN
ZD4BEAC9e3kHR9whA1IAYORE5Yvfvff1T+umxDwigsxg+n+vzlF2y1QV7NNxswyc
wa+m/MrGljEe3NFlwihX+1Oft0COLPUwZXLJx8aufd+N5yYdlrBOXHO+Vh5XysLH
u+8097bo3bNjI0gY9t9uLJMPUR0puJpHO3rGzfBgkEQDOIFI8BKO+kl71cLlCmGk
rTS1vAyi2hwcTTXJZN7/5O2FZlaNO7n/7vLyBnlL6pf5dlwZVlocZIGhvlJ0cDXK
TIdIrlZKyWJ9OBULTldtBERFSExtbVhzEOCs56nYHb2xFpxZJGx749nOqxspUiUo
UG2vaRNSwGzYReoWxIqdp6urirEE9AM9v2Vrj/Nxh+Mgx2yQg6E/JX9sXGsM/sn3
dqvUBfEHiDmywjbdPXSTXHk241N4dwRALw+oBnasxwzz35n9FFY4tee+jxJoXjLt
uf824dZr6p7FdmB2bBl1aWwQdTx86yjNQx9z36hUxUOXpa75LsYYEa0imolgbmhg
+w1jIhCFdkCpmLrcWEtBSee5RUWiqNAIlb7Qy1YdHnY5C75ILn8bOqAD5y7eZLqP
52v7YFiY2NtBLut3ULSG6T2D6wC5tvjjCvHgJ97ToOx7FDF0EuYQKkbx//GjFaFu
6ozJXYLYZORF06ZcpZDQgj8/XU6k/4PEQZisXpZ0X4I9wscuHQARAQABwsF8BBgB
CAAmAhsMFiEEyiYsbIPeTS+yijMqOmpNuDnqptcFAmnmmc8FCRSyWmUACgkQOmpN
uDnqpteFSBAAj4evfTNVeuezF6PfGa2n5w/y19bR49TtEdbkxSL0vA2Hf/M7Hiq8
t6yCpyhWftKvmO1uIqbkzu4hi8wxlypfGfeAOHvjr+vQAxkQyUcYSI5buzsUqjyV
QnDB9anDocRKnn3A3R8/8bChCePZQEbPTJwppZ0RI1TRy5uJ9yDlPOanxeYUSEZ4
CMerrd+xervoVN+p8Ov/KL6LioTVGli9M5Bmxr5Ivknc/4fL55IsBLJ1KkyVd0LQ
+PvLXkzaiglJtM0wVjGS12XMd7ksAz3nBJzy/dO+u0w4f7zo4LCXDMBJYaoYCJLC
tSsBoHVRpSeAnL3cSc5GZKcLfd8gyf7//Rg7thi7ChbC/y3eCQzx60eGRja9keXx
7478zA2HhpKvibvyiGX3OHp4p4b7KEonicl69hsfEUHoRbe31Suni5yVd5CoM9s/
uNfbSZ4o0m6cO7VJlNfLkosq2aO9G3kk56XeSNoQLw3eb8h1AFJyL21tRUP0yKkq
DiuvC/iH7tOW9+rcXui33i0gwdZSWu3NQ6EcRIdrk03GIigwSv7cQ8/11AGWtKMm
SGf4ziSftyrslZ2wcT2frXAlW2TfzwkM08AAn3vK+xI4AfNcjisYbiMXg0LOYgD/
FwFB+D2U3cDkGf4und8aGw45l34XbC5EclQk1DUHzI8yI9/uzYzDmqDCwXwEGAEI
ACYCGwwWIQTKJixsg95NL7KKMyo6ak24Oeqm1wUCXyCZSQUJCUmAiwAKCRA6ak24
Oeqm10N+D/4mE/jEduST6bCpnCjNsMUynjHTCQJ7g+vDBXlkNcGf642wbtaMqeP0
l2MsKpmwrflAds6HHa+7Df2Zsp7fyt8t/Ruv9a9EmSDf3eRENbpEuuVSejKO/ewA
Dk5XlKSGVELPAU8gtcbKrzIOMqr3GBe4CH83shouNiZB/+fTtv61TJr6jyeAOC7A
GXeMVJDJyItZGV/c8CzH22CRgUy0rhvkpfStwbpFkRU80k/1dvE9k3g2QEtuYiDT
Ktv0hJ2g8WPsYG2icWTtU+6yTQZi0ifMqosGjMJuPe/gYtNJ0TD5spfKZ7vGmkJN
cE287IAzZpMG5ovIbodjomzl2GZ7uY9FDC6cZJOSYiWOgyCb/6vY5QcveOJXck74
0CE5+BMN4n24tO3c+p+IiwKXYipoZ7zRsSxk3I/z3reI/2QByV543DlawZkOBHbj
IqcUXFcBRQGyc7MZs5tJxoUKH3bxkc4zkPLuEU+q8SFU9NPG8RifhNcpzk12r95j
syFvDprASRHSch8c9bl57OIZkswdW6V087gef2LMLoSBfzruU+h0zmCJ3PPsD2ub
iIZSh40H21t9N/Xz5SJXhlDysQqf4yvf/YV+wQ+IG7FLaucarmj8mf5C9ZMrF9Q+
8gGZQyQEZ0uF4+6RyBDUTGfIoI94VqeI56kYClHWmMRb83AkvIIZRcLBfAQYAQgA
JgIbDBYhBMomLGyD3k0vsoozKjpqTbg56qbXBQJdU7ZRBQkHZ4WTAAoJEDpqTbg5
6qbXe44QAKWI03JVUp5kWsKvkB2AzwJcOgPVvjJK7OLP1ePyWiUe3EdC7uCi9eQB
4wc0luus0MksIPYt2Wd0wUc9imSzSdlp2onnehFh+hxKsmLFTsiAMc5T56kBoJ+f
NfFrCYuIZv78eeb4FQfYFxXrmOL4c3pJJ3xmgL8B+uFdujR5fSjb0YBos+JtlJWU
Fx2k68Q8uoivcku/hLUgxiLPlADrM9NTi+usHW8cX2VrGyoFXw6JIINZrZwHHZrz
uH5PyuPLDokj6FMc5nCWkvjQxYWEqR7v+IONDv8CEdj224s4B/QNLXFP8m/SHngO
voqBbxoGJDx9bq/CHj7pOfUQcur8WEoz0kyu3qtvi1nRmfMUpwCWR/w3fmcMvcMS
+AsC6SqLOScH+occycyf56zBPCCLcAApT9E5dMOMvs8miqYBXH3A4iKTx9Mye0m7
nXZ/n1Y8Q6GB+7h8QZUOJleIVWZL2O3SNe+p9UjZUYSXuRlk594v/Fa/0yGuoI5e
vp6OZCEi2hU5qP5Lt4lxI3i6gYZIGHvDViP7J2Xelxg3E6mzj/2wFpmBPzZVl+Q4
9w8C9jHfNa9cqQEKKYr9WAcuVyuIeXPvipOf+uQ5D2a5GidJL31LF3KDE7kwsW9W
AOmbvC/7Ci2HQaB1Av/U/WlZrlVz7PqZ18kzTaJbA2C3jNSqTV49wsF8BBgBCAAm
AhsMFiEEyiYsbIPeTS+yijMqOmpNuDnqptcFAltgySUFCQV0mGcACgkQOmpNuDnq
ptf7rA//arpf/RjARSdNG/KsOQTbx7k2SI1h4rXpBsu81XGmjmGbyeMKDY2P2y9j
Aan5aeqolzKysEDf/75k9AZ92ySooGO80b4myrl1f6NHzNBsljXr/OQVxkNUs/yM
Sx7Kv8VSJOjFRLOOZOpHyDxms1WkPF0TBDrMYRSKnGijwgFCWVVkKCXiDNWqVXcC
9f5WJHVkp6UgJ1nXo14eBjrEVEtzowEBOyRdXzTi7CXQdh5OnrlZSMk6D7NDHdv1
8shHTa/fiNIuQB0VxnZi96tcQmzyTFdTNQu7T6qqXMx++gN/axM21r3VQOe1qckp
XE16WNZItFG/ULu7e8/Me+JMJjqDcTV1+d6OvZaNmqy5urzCx1nzHS5jOQv26y4a
oh6KTE2lneeYRA1G3t6YFGjIyiZHK8caR7/aRIaXVvwbODz0IAs431kcG1I2cws0
VA4UXSipF36ry0WU2+dsFAYH63aZVLCkpCSh2AkBwKKtYazVcjw7lr/ApxhxQg8o
c3dp2bxBugmyj/UmQ43nP/IaEXo6xEbr3DMpk/Bp41xlmzA/SYkEsmUWwd8JIhCR
M/pIZLmINiuFwt9NcsIA5kNhWgwtRtA465nLaPpB3rVfKjbS79zo6LwErbQeUqTt
zgvHva/gyx7zmtCJ1plHQPy/3oyCJ61bnYTIkuN63KS7XtflCY3CwWUEGAEIAA8F
AlfNZD4CGwwFCQPCZwAACgkQOmpNuDnqpteDGw/+Pp0s5ItKy6eUpaLZgIjGEUOd
vVsj/2ui2VGl1BzZLe4ocwHaAouIhAsUmJ7ZciGSW1OSTGQ5Qw8jQ1EDCC2k4RZ2
AfYJ4S8R2og4jov9s08O6qnTKJfBYpa7fSr38b4o7eecu021orx0pKyiet3ZUs5L
uw9U3sN/PMelHAkjZMkR35DnL3Tl93ySM/YB9VR85bLBcF3Tf3XZYi8MXyD4B1FN
f+BWARyxhQhs/S4Dw4cufC9DKjzyUXwPfLMENUtWcbuxae6kdfSV05EQcZSqmF+d
AFMBSkMz+3aXIH95d6/hrXhq/eYqWgEJrxZB55ycdUcfn23L7/r10gVMRq7ZkSEx
SgD5DJdeNvFrWOOJa2NDiZ/MCfCSoKG79O+0IQfMeuK1LPsj3AHGTGOWh6OgALKV
fgOHkwVh/CFP5+aLQTTUU7lSthPd/jwvqwXUFYFvAwdg8VjQSX0kT62ZI5UZrqej
EJXDpuYyBQN5BZUgqwoy3oTy0Ktao3Td9SUDEpFaKbt1YWWmYHLrscVtI6yiKLMI
usHUXMa+dB7iKGK1BjU2Z2PE4Ow7DXqnaEJwSNElgkhftnT3lIq0qFTDSkeEvfZg
3fMtIpdIiYngrZo+vxq7NOYQ6RLHtDLXtgYECZrQX6Obl+3jfXFVb8Ethtl1mhpA
Ai+VhC+sXh0NMOq4pxE=
=7joG
-----END PGP PUBLIC KEY BLOCK-----
